X:1
L:1/8
M:4/4
K:G
 D2 |""G"" B3 c/d/""D"" c3 B/c/ |""G"" d2 g>f g2 G>A | B3 c/d/""C"" c3 B/c/ |""G"" d>e d<B""D"" A3 G/A/ | 
""G"" B3 c/d/""D"" c3 B/c/ |""G"" d2 g>f g3 f/g/ |""D"" a>g f>g e>c A<F |""G"" G2 G2 G2 f>g || 
""G"" a>g d>B G>B d<g |""C"" f2 e2 e3 f/g/ |""G"" a>g dB GB d<B |""D"" A2 A2 A3 f/g/ |""G"" a>g d>B G>B d<g | 
""C"" f2 e2 e2 f>g |""D"" a>g f>g e>c A<F |""G"" G2 G2 G2 z2 ||
